!!!!SEGMENT: pl-kk--kk-i-471--001_renner-josef--missa-tertia-kyrie.krn
!!!cenid: 18xx:1440
!!!COM: Renner, Josef
!!!COM-rismID: pe41020479
!!!CDT:
!!!CNT:
!!!OPR: Missa tertia
!!!OTL: Kyrie
!!!OMV: 001
!!!PDT:
!!!AGN: Sacred; Mass
!!!SMS-siglum: PL-Kk
!!!SMS-shelfmark: Kk.I.471
!!!SMS-shelfwork: 001-001 M
!!!SMS-variant: Partytura PL-Kk Kk.I.471:0002-0003
!!!SMS-altvar: Partytura PL-Kk Kk.I.471:0013-0014; Tenor I PL-Kk Kk.I.471:0024,0030; Tenor II PL-Kk Kk.I.471:0037,0043; Bas I PL-Kk Kk.I.471:0050,0056; Bas II PL-Kk Kk.I.471:0063,0070
!!!NIFC-rismSourceID: 1001140695
!!!NIFC-islandoraID: pl-kk:13873
!!!URL-pdf-islandora: https://repozytorium.nifc.pl/islandora/object/pl-kk%3A13873/datastream/PDF/view
!!!URL-scan: https://polish.musicsources.pl/pl/lokalizacje/galeria/rekopisy/6078 @EN{Scan on Polish Music Herritage in Open Access Website} @PL{Skany w portalu Dziedzictwo Muzyki Polskiej w otwartym dostępie}
!!!ONB-nifc: UWAGA: na podstawie partytury. Proszę uzupełnić pola !!!SMS dot. partytury i głosów. Uwaga: części Mszy: 1. Kyrie, 2. Gloria, 3. Credo, 4. Sanctus, 5. Benedictus, 6. Agnus Dei
!!!AIN: 1 bass 2 organ 1 soprn
!!!key:
**kern	**kern	**kern	**text	**kern	**text
*part4	*part3	*part2	*part2	*part1	*part1
*	*	*group1	*	*group1	*
*staff4	*staff3	*staff2	*staff2	*staff1	*staff1
*Iorgan	*Iorgan	*Ibass	*	*Isoprn	*
*I"Organo	*I"Organo	*I"Basso	*	*I"Soprano	*
*clefF4	*clefG2	*clefF4	*	*clefG2	*
*k[b-]	*k[b-]	*k[b-]	*	*k[b-]	*
*F:	*F:	*F:	*	*F:	*
*M4/4	*M4/4	*M4/4	*	*M4/4	*
*met(c)	*met(c)	*met(c)	*	*met(c)	*
=1	=1	=1	=1	=1	=1
*	*	*^	*	*^	*
!LO:TX:t=P:problem=niezidentyfikowany symbol pod nutą	!	!	!	!	!	!	!
1FF	1a 1f 1c	2.F/	2.F\	.	2.cc/	2.a\	Ky-
.	.	4F/	4F\	.	4cc/	4a\	-ri-
=2	=2	=2	=2	=2	=2	=2	=2
*	*^	*	*	*	*	*	*
2C\	2g 2e/	[1c	2.E/	2.C\	.	2.cc/	2.g\	-e
2E\	2cc 2g/	.	.	.	.	.	.	.
.	.	.	4r	4ryy	.	4r	4ryy	.
*	*	*	*v	*v	*	*	*	*
=3	=3	=3	=3	=3	=3	=3	=3
*	*	*	*	*	*	*	*^
!	!	!	!	!	!LO:N:vis=2	!	!	!
2F\	2cc 2a/	2c\]	2r	.	1ree	2.f\	.	Ky-
2r	2r	2ryy	[2F\	Ky-	.	.	.	.
.	.	.	.	.	.	4g\	.	-ri-
*	*v	*v	*	*	*	*	*	*
=4	=4	=4	=4	=4	=4	=4	=4
1r	1r	4F\]	.	2ryy	4a\	.	-e
.	.	4G\	-ri-	.	4b-\	.	.
*	*	*	*	*	*	*above	*
.	.	4A\	-e	[2ff/	4cc\	Ky-	.
.	.	4B-\	.	.	4dd\	.	.
=5	=5	=5	=5	=5	=5	=5	=5
*	*	*^	*	*	*	*	*
1r	1r	4A\	2.F/	.	4ff/]	4cc\	.	.
.	.	4G\	.	.	4ee/	4b-\	-ri-	.
.	.	4F\	.	.	4dd/	4a\	-e	.
.	.	4G/	4E\	e-	4cc/	4g\	e-	.
=6	=6	=6	=6	=6	=6	=6	=6	=6
1r	1r	4A/	4D\	-lei-	2dd/	2f\	-lei-	e-
.	.	4B-/	4BB-\	.	.	.	.	.
.	.	4c/	4AA\	.	4cc/	2ryy	.	.
.	.	4d/	4BB-\	.	4b-/	.	.	.
=7	=7	=7	=7	=7	=7	=7	=7	=7
*^	*^	*	*	*	*	*	*	*
2r	2ryy	2r	2ryy	2c/	1C	.	4a/	(2.f\	.	-lei-
.	.	.	.	.	.	.	4g/	.	.	.
2G/	2C\	2e/	2c\	2G/	.	.	2cc/	.	.	.
.	.	.	.	.	.	.	.	4e\)	.	.
!!LO:LB:g=original
=8	=8	=8	=8	=8	=8	=8	=8	=8	=8	=8
2A/	2FF\	2f 2c/	2ryy	2.A/	2.FF\	-son	2.cc/	2.f\	-son	-son
2c/	4F\	4a/	4f\	.	.	.	.	.	.	.
.	4E\	4cc/	4g\	4r	4ryy	.	4r	4ryy	.	.
*v	*v	*	*	*	*	*	*v	*v	*	*
*	*v	*v	*	*	*	*	*	*
=9	=9	=9	=9	=9	=9	=9	=9
1r	1r	2.A/	2.F\	.	2.cc\	.	Ky-
.	.	4G/	4E\	.	4cc\	.	-ri-
=10	=10	=10	=10	=10	=10	=10	=10
*	*	*	*	*	*^	*	*
1r	1r	2A/	2D\	.	(2ff/	2dd\	Ky-	-e
.	.	4r	4r	.	4ee/)	4ryy	.	.
.	.	4G/	4G\	.	4dd/	4bn\	-ri-	e-
=11	=11	=11	=11	=11	=11	=11	=11	=11
*^	*^	*	*	*	*	*	*	*
2r	2ryy	2r	2ryy	2G/	1G	.	2dd/	2bn\	-e	-lei-
2Bn/	2GG\	2dd/	2g\	2Bn/	.	.	4r	2dd\	.	.
.	.	.	.	.	.	.	4dd/	.	e-	.
=12	=12	=12	=12	=12	=12	=12	=12	=12	=12	=12
2c/	2C\	2ee/	1g	4c/	2C\	.	(2ee/	2cc\	-lei-	.
.	.	.	.	2G/	.	.	.	.	.	.
2Bn/	2GG\	2dd/	.	.	2GG\	.	2dd/)	2bn\	.	.
.	.	.	.	4F/	.	.	.	.	.	.
*v	*v	*	*	*	*	*	*	*	*	*
=13	=13	=13	=13	=13	=13	=13	=13	=13	=13
2C\	[2cc/	1e 1c	2.E/	2.C\	.	2.cc/	2.g\	-son	-son
2E\	4cc/]	.	.	.	.	.	.	.	.
.	4b-/	.	4r	4ryy	.	4r	4ryy	.	.
*	*v	*v	*	*	*	*	*	*	*
=14	=14	=14	=14	=14	=14	=14	=14	=14
1F	1a 1f 1c	2.F\	2.ryy	.	2.cc/	2.a\	Ky-	.
.	.	4F/	4F\	.	4cc/	4a\	-ri-	.
=15	=15	=15	=15	=15	=15	=15	=15	=15
2.BB-\	1b- 1f 1d	1F	1BB-	.	1dd	1b-	-e	.
4AA\	.	.	.	.	.	.	.	.
*	*	*	*	*	*v	*v	*	*
*	*	*	*	*	*	*v	*v
=16	=16	=16	=16	=16	=16	=16
*	*^	*	*	*	*	*
*	*	*	*	*	*above	*	*
2GG\	2b- 2g/	2d\	2.B-/	2.G\	Ky-	1r	.
2r	2r	2ryy	.	.	.	.	.
.	.	.	4A/	4F\	-ri-	.	.
*	*v	*v	*	*	*	*	*
!!LO:LB:g=original
=17	=17	=17	=17	=17	=17	=17
1r	1r	(2G/	(2E\	-e	1r	.
*	*	*	*	*below	*	*
.	.	2F/)	2D\)	.	.	.
=18	=18	=18	=18	=18	=18	=18
*	*^	*	*	*	*^	*^
1C	2.cc/	2e\	2E/	1C	.	1rgg	2.cc\	.	Ky-
.	.	2g\	2G/	.	.	.	.	.	.
.	4b-/	.	.	.	.	.	4b-\	.	-ri-
=19	=19	=19	=19	=19	=19	=19	=19	=19	=19
2.F\	2ff/	2.a 2.f\	2.F\	2.ryy	.	2ff/	2.a\	Ky-	-e
.	2cc/	.	.	.	.	2cc/	.	-ri-	.
4E\	.	4g 4c\	4G/	4E\	.	.	4g\	.	e-
=20	=20	=20	=20	=20	=20	=20	=20	=20	=20
*^	*	*	*	*	*	*	*	*	*
2A/	2F\	2.cc/	2f\	2A/	2F\	.	2.cc/	2f\	-e	-lei-
2c/	2E\	.	2g\	2G/	2E\	.	.	2g\	.	.
.	.	4cc/	.	.	.	.	4cc/	.	e-	.
*	*	*v	*v	*	*	*	*	*	*	*
=21	=21	=21	=21	=21	=21	=21	=21	=21	=21
2A/	4D\	1dd 1f	1F	4D\	.	1dd	2a\	-lei-	.
.	4C\	.	.	4C\	.	.	.	.	.
2B-/	2BB-\	.	.	2BB-\	.	.	2b-\	.	.
*v	*v	*	*	*	*	*	*	*	*
=22	=22	=22	=22	=22	=22	=22	=22	=22
1A 1FF;	1cc 1f;	1F;	1FF	.	1cc;	1a	-son	-son.
=23||	=23||	=23||	=23||	=23||	=23||	=23||	=23||	=23||
1r	1r	2E/	1rC	.	1rgg	2g\	.	Chri-
.	.	4F/	.	.	.	4a\	.	-ste
.	.	4E/	.	.	.	4cc\	.	e-
=24	=24	=24	=24	=24	=24	=24	=24	=24
*	*	*	*^	*	*	*	*	*
1r	1r	4F/	4F\	2rC	.	1rgg	2dd\	.	-lei-
.	.	4G/	4G\	.	.	.	.	.	.
.	.	2A/	2F\	2ryy	Chri-	.	2cc\	.	-son,
*	*	*	*v	*v	*	*	*	*	*
=25	=25	=25	=25	=25	=25	=25	=25	=25
1r	1r	2F/	2BB-\	-ste	1rgg	2dd\	.	Chri-
.	.	4E/	2C\	e-	.	4cc\	.	-ste
.	.	4G/	.	.	.	4cc\	.	e-
=26	=26	=26	=26	=26	=26	=26	=26	=26
1r	1r	4G/	2FF\	-lei-	2r	2a\	.	-lei-
.	.	4F/	.	.	.	.	.	.
!	!	!	!	!	!LO:TX:t=P:problem=sylaba "Chri" dopisana innym atramentem	!	!	!
.	.	2E/	2C\	-son	[2cc/	(2g\	Chri-	-son
!!LO:PB:g=original
=27	=27	=27	=27	=27	=27	=27	=27	=27
1r	1r	2F/	1rC	.	2cc/]	2a\)	.	Chri-
.	.	4F/	.	.	4dd/	(4a\	-ste	-ste
.	.	4A/	.	.	4ff/	4cc\)	e-	e
=28	=28	=28	=28	=28	=28	=28	=28	=28
1r	1r	2A/	2rC	.	2ee/	2cc\	-lei-	Chri-
.	.	4B-/	4rC	.	4dd/	4dd\	-son	-ste
.	.	4G/	4BB-\	.	4ff/	4dd\	e-	e-
=29	=29	=29	=29	=29	=29	=29	=29	=29
1r	1r	1G	1C	.	2ff/	1cc	-lei-	-lei-
.	.	.	.	.	2ee/	.	.	.
=30	=30	=30	=30	=30	=30	=30	=30	=30
1r	1r	1A	1F	.	1ff	1cc	-son	-son
=31||	=31||	=31||	=31||	=31||	=31||	=31||	=31||	=31||
[1FF	[1a [>1f [1c	2.A/	2.F\	.	2.cc/	2.f\	.	Ky-
.	.	4A/	4F\	.	4cc/	4f\	.	-ri-
=32	=32	=32	=32	=32	=32	=32	=32	=32
*	*	*	*	*^	*	*	*	*
2FF\]	2a] 2f] 2c/]	2A/	2F\	.	.	2cc/	2.f\	.	-e
2r	2r	2rB	[>2F\	.	Ky-	2ree	.	.	.
.	.	.	.	.	.	.	4g\	.	.
=33	=33	=33	=33	=33	=33	=33	=33	=33	=33
1r	1r	2ryy	4F\]	.	.	2ryy	4a\	.	.
.	.	.	4G\	.	-ri-	.	4b-\	.	.
*	*	*	*	*above	*	*	*	*	*
.	.	(2F/	4A\	Ky-	-e	[2ff/	4cc\	Ky-	.
.	.	.	4B-\	.	.	.	4dd\	.	.
=34	=34	=34	=34	=34	=34	=34	=34	=34	=34
1r	1r	4A/)	2F\	.	.	4ff/]	4cc\	.	.
.	.	4G/	.	-ri-	.	4ee/	4b-\	-ri-	.
.	.	4A/	4F\	-e	.	4dd/	4a\	-e	.
.	.	8G/L	8E\L	.	e-	(8cc/L	8g\L	e-	e-
.	.	8A/J	8F\J	.	.	8dd/J)	8a\J	.	.
*	*	*	*	*v	*v	*	*	*	*
=35	=35	=35	=35	=35	=35	=35	=35	=35
1r	1r	4B-/	4G\	-lei-	4ee/	4b-\	-lei-	-lei-
.	.	4c/	4A\	.	4ff/	4cc\	.	.
.	.	4d/	4B-\	.	4gg/	4dd\	.	.
.	.	4c/	4A\	.	4ff/	4cc\	.	.
!!LO:LB:g=original
=36	=36	=36	=36	=36	=36	=36	=36	=36
2r	2r	4B-/	4G\	.	(4ee/	4b-\	.	.
.	.	4A/	4F\	.	4dd/)	4a\	.	.
4r	4r	4G/	4E\	.	2cc/	(4g\	-son	-son
4F\	4a/	4F/	4F\	.	.	4a\)	.	.
=37	=37	=37	=37	=37	=37	=37	=37	=37
*	*^	*	*	*	*	*	*	*
2BB-\	2dd 2b-/	1f	2BB- 2F/	2BB-\	.	2dd/	2b-\	Ky-	Ky-
2F\	2cc 2a/	.	2r	2ryy	.	2cc/	2a\	-ri-	-ri
=38	=38	=38	=38	=38	=38	=38	=38	=38	=38
*^	*	*	*	*	*	*	*	*	*
2B-/	2G\	2b-/	4d\	2B-\	2G\	Ky-	(4dd/	2g\	-e	.
.	.	.	4e\	.	.	.	4ee/)	.	.	.
2c/	2F\	2a/	2f\	2c/	2F\	-ri-	2ff/	2a\	e-	.
=39	=39	=39	=39	=39	=39	=39	=39	=39	=39	=39
!	!	!	!	!LO:N:vis=1	!	!	!	!	!	!
2B-/	2G\	2b-/	2e-X\	2B-/	2.G\	-e	2ee-X/	1b-	-lei-	.
2r	2ryy	2r	2ryy	2G/	.	e-	[2dd/	.	.	.
.	.	.	.	.	4F\	.	.	.	.	.
=40	=40	=40	=40	=40	=40	=40	=40	=40	=40	=40
2r	2ryy	2r	2ryy	1G	1E-X	-lei-	2dd/]	1g	.	.
2G/	2E-X\	2cc/	2g\	.	.	.	2cc/	.	.	.
*	*	*v	*v	*	*	*	*	*	*	*
=41	=41	=41	=41	=41	=41	=41	=41	=41	=41
1A	1D	1dd 1f#X	1F#X	1D	-son.	1dd	1a	-son,	.
*	*	*	*v	*v	*	*	*	*	*
*v	*v	*	*	*	*v	*v	*	*
=42	=42	=42	=42	=42	=42	=42
!	!	!	!	!LO:TX:a:t=P:problem=tekst wymazany "Ky-ri-"	!	!
2r	2.dd 2.b-/	2r	.	2.dd\	.	Ky-
2G\	.	[2G\	Ky-	.	.	.
.	4cc 4a/	.	.	4cc\	.	-ri-
=43	=43	=43	=43	=43	=43	=43
*	*	*	*	*^	*	*
2G\	1dd 1b-	2G\]	.	2.dd/	2b-\	Ky-	e
2F\	.	2F\	-ri-	.	2a\	.	e-
.	.	.	.	4dd/	.	-ri-	.
=44	=44	=44	=44	=44	=44	=44	=44
*^	*^	*^	*	*	*	*	*
1B-	2E-X\	2ee-X/	2.g\	2.G/	2E-X\	-e	2ee-X/	1b-	-e	-lei-
.	2BB-\	2dd/	.	.	2BB-\	.	2dd/	.	e-	.
.	.	.	4f\	4F/	.	e-	.	.	.	.
=45	=45	=45	=45	=45	=45	=45	=45	=45	=45	=45
1G	1C	2.cc/	1en	2En/	1C	-lei-	1cc	2g\	-lei-	-son,
.	.	.	.	2G/	.	.	.	4cc\	.	Ky-
.	.	4b-/	.	.	.	.	.	4b-\	.	-ri-
!!LO:LB:g=original
=46	=46	=46	=46	=46	=46	=46	=46	=46	=46	=46
2A/	2F\	2a/	1c	2A/	2F\	.	1cc	2a\	.	-e
4c/	2E\	2g/	.	4c/	2E\	-son	.	2g\	.	.
4B-/	.	.	.	4B-/	.	.	.	.	.	.
=47	=47	=47	=47	=47	=47	=47	=47	=47	=47	=47
2A/	2.F\	2f/	1c	2A/	2.F/	Ky-	1cc	2f\	.	.
2G/	.	2g/	.	2G/	.	.	.	2g\	.	e-
.	4E\	.	.	.	4E\	-ri-	.	.	.	.
=48	=48	=48	=48	=48	=48	=48	=48	=48	=48	=48
2A/	4D\	2f/	1d	1F	4D\	-e	1dd	2a\	.	-lei-
.	4C\	.	.	.	4C\	e-	.	.	.	.
2F/	2BB-\	2b-/	.	.	2BB-\	-lei-	.	2b-\	.	.
*v	*v	*	*	*	*	*	*	*	*	*
*	*v	*v	*	*	*	*	*	*	*
=49	=49	=49	=49	=49	=49	=49	=49	=49
1F 1FF	1a 1c	1F	1FF	-son.	1cc	1a	-son	-son
*	*	*v	*v	*	*	*	*	*
*	*	*	*	*v	*v	*	*
==	==	==	==	==	==	==
*-	*-	*-	*-	*-	*-	*-
!!!system-decoration: (g1){(s3,s4)}
!!!RDF**kern: > = above
!!!ENC: Marta Lawrence
!!!END: 2021-02-11
!!!ENC: Andrzej Kubiczek
!!!END: 2021-01-24
